X:1
T:Straight, No Chaser
C:Thelonious Monk
Z:All Rights Reserved
L:1/8
Q:1/4=96
M:4/4
K:F
V:1 treble nm="MusicXML Part"
%%MIDI program 0
V:1
 C | F"F7"G^GA- ACF=G | ^G"Bb7"AB_A- A3 C | F"F7"G^GA- ACF=G | ^GABC F=G _A2 | %5
"Bb7" z C FG ^GAB_A- | A8 |"F7" z C FG ^G A2 C | F"Am7"G^GA-"D7" ACF=G | ^G"Gm7"ABC ^CD_E=E- | %10
 E"C7"F^FG ^GABC | F"F7"G^GA- A4- | A8 |] %13

